img/instagram.svg

<svg width="21" height="20" viewBox="0 0 21 20" fill="none" xmlns="http://www.w3.org/2000/svg">
<path d="M10.6086 1.83333C13.2753 1.83333 13.6086 1.83333 14.692 1.91667C17.442 2 18.692 3.33333 18.7753 6C18.8586 7.08333 18.8586 7.33333 18.8586 10C18.8586 12.6667 18.8586 13 18.7753 14C18.692 16.6667 17.3586 18 14.692 18.0833C13.6086 18.1667 13.3586 18.1667 10.6086 18.1667C7.94198 18.1667 7.60864 18.1667 6.60864 18.0833C3.85864 18 2.60864 16.6667 2.52531 14C2.44198 12.9167 2.44198 12.6667 2.44198 10C2.44198 7.33333 2.44198 7 2.52531 6C2.60864 3.33333 3.94198 2 6.60864 1.91667C7.60864 1.83333 7.94198 1.83333 10.6086 1.83333ZM10.6086 0C7.85864 0 7.52531 0 6.52531 0.0833333C2.85864 0.25 0.858643 2.25 0.691976 5.91667C0.608643 6.91667 0.608643 7.25 0.608643 10C0.608643 12.75 0.608643 13.0833 0.691976 14.0833C0.858643 17.75 2.85864 19.75 6.52531 19.9167C7.52531 20 7.85864 20 10.6086 20C13.3586 20 13.692 20 14.692 19.9167C18.3586 19.75 20.3586 17.75 20.5253 14.0833C20.6086 13.0833 20.6086 12.75 20.6086 10C20.6086 7.25 20.6086 6.91667 20.5253 5.91667C20.3586 2.25 18.3586 0.25 14.692 0.0833333C13.692 0 13.3586 0 10.6086 0ZM10.6086 4.83333C7.77531 4.83333 5.44198 7.16667 5.44198 10C5.44198 12.8333 7.77531 15.1667 10.6086 15.1667C13.442 15.1667 15.7753 12.8333 15.7753 10C15.7753 7.16667 13.442 4.83333 10.6086 4.83333ZM10.6086 13.3333C8.77531 13.3333 7.27531 11.8333 7.27531 10C7.27531 8.16667 8.77531 6.66667 10.6086 6.66667C12.442 6.66667 13.942 8.16667 13.942 10C13.942 11.8333 12.442 13.3333 10.6086 13.3333ZM15.942 3.5C15.2753 3.5 14.7753 4 14.7753 4.66667C14.7753 5.33333 15.2753 5.83333 15.942 5.83333C16.6086 5.83333 17.1086 5.33333 17.1086 4.66667C17.1086 4 16.6086 3.5 15.942 3.5Z" fill="#8794BA"/>
</svg>

<svg width="21" height="20" fill="none" xmlns="http://www.w3.org/2000/svg"><path d="M10.609 1.833c2.666 0 3 0 4.083.084 2.75.083 4 1.416 4.083 4.083.084 1.083.084 1.333.084 4s0 3-.084 4c-.083 2.667-1.416 4-4.083 4.083-1.083.084-1.333.084-4.083.084-2.667 0-3 0-4-.084-2.75-.083-4-1.416-4.084-4.083-.083-1.083-.083-1.333-.083-4s0-3 .083-4C2.61 3.333 3.942 2 6.61 1.917c1-.084 1.333-.084 4-.084zm0-1.833c-2.75 0-3.084 0-4.084.083C2.86.25.86 2.25.692 5.917.609 6.917.609 7.25.609 10s0 3.083.083 4.083c.167 3.667 2.167 5.667 5.833 5.834C7.525 20 7.86 20 10.61 20s3.083 0 4.083-.083c3.667-.167 5.667-2.167 5.833-5.834.084-1 .084-1.333.084-4.083s0-3.083-.084-4.083C20.36 2.25 18.36.25 14.692.083 13.692 0 13.359 0 10.609 0zm0 4.833c-2.834 0-5.167 2.334-5.167 5.167 0 2.833 2.333 5.167 5.167 5.167 2.833 0 5.166-2.334 5.166-5.167 0-2.833-2.333-5.167-5.166-5.167zm0 8.5A3.343 3.343 0 017.275 10c0-1.833 1.5-3.333 3.334-3.333 1.833 0 3.333 1.5 3.333 3.333 0 1.833-1.5 3.333-3.333 3.333zM15.942 3.5c-.667 0-1.167.5-1.167 1.167 0 .666.5 1.166 1.167 1.166s1.167-.5 1.167-1.166c0-.667-.5-1.167-1.167-1.167z" fill="#8794BA"/></svg>
